dist/img/sm1.svg

<svg width="14" height="14" viewBox="0 0 14 14" fill="none" xmlns="http://www.w3.org/2000/svg">
<path d="M11.9514 2.04839C10.6251 0.722093 8.87143 0 6.99988 0C5.12833 0 3.37468 0.722093 2.04839 2.04839C0.722093 3.37468 0 5.12833 0 6.99988C0 8.87143 0.722093 10.6251 2.04839 11.9514C3.37468 13.2777 5.12833 13.9998 6.99988 13.9998C8.87143 13.9998 10.6251 13.2777 11.9514 11.9514C13.2777 10.6251 13.9998 8.87143 13.9998 6.99988C13.9998 5.12833 13.2777 3.37468 11.9514 2.04839ZM6.99988 13.3219C3.50731 13.3219 0.677883 10.4925 0.677883 6.99988C0.677883 3.50731 3.50731 0.677883 6.99988 0.677883C10.4925 0.677883 13.3219 3.52204 13.3219 6.99988C13.3219 10.4777 10.4925 13.3219 6.99988 13.3219Z" fill="white"/>
<path d="M10.3012 3.7578C10.0506 3.5957 9.69695 3.72833 9.5938 3.77254L2.91812 6.38091C2.68234 6.46933 2.41708 6.66091 2.46129 6.97038C2.5055 7.32405 2.87391 7.45668 2.91812 7.47142L4.46546 7.9872C4.58336 8.38509 4.95177 9.57875 5.04019 9.84401C5.11387 10.0651 5.20229 10.3156 5.43808 10.3303C5.46755 10.3451 5.51176 10.3451 5.57071 10.3451C5.71807 10.3451 5.80649 10.3008 5.86544 10.2272L6.76437 9.40191L8.28224 10.5661C8.29698 10.5808 8.31171 10.5956 8.34119 10.5956C8.47381 10.6545 8.57697 10.6693 8.68013 10.6693C8.78328 10.6693 8.8717 10.6398 8.93065 10.625C9.19591 10.5219 9.29906 10.2714 9.3138 10.2419C9.3138 10.2272 9.32854 10.2124 9.32854 10.1977L10.5222 4.1999C10.5222 4.18516 10.5222 4.17042 10.5222 4.15569C10.5075 3.9199 10.3748 3.80201 10.3012 3.7578ZM5.79176 9.59349L5.88018 8.76824L6.32227 9.10718L5.79176 9.59349ZM8.79802 10.0798C8.78328 10.0945 8.75381 10.1387 8.7096 10.1682C8.66539 10.183 8.62118 10.183 8.56223 10.1535L6.897 8.8714L6.07175 8.22299C6.76437 7.60405 8.93065 5.65882 9.03381 5.55566C9.12222 5.46724 9.22538 5.36409 9.21064 5.20198C9.21064 5.18725 9.21064 5.17251 9.19591 5.15778C9.18117 5.06936 9.13696 4.98094 9.04854 4.93673C8.88644 4.84831 8.7096 4.90725 8.57697 4.99567L4.6423 7.51563L3.08023 6.98511C3.05075 6.97038 3.00654 6.95564 2.99181 6.92617C3.02128 6.91143 3.05075 6.88196 3.08023 6.88196C3.08023 6.88196 3.08023 6.88196 3.09496 6.88196L9.77064 4.25884C9.77064 4.25884 9.77063 4.25884 9.78537 4.25884C9.82958 4.24411 9.90326 4.21463 9.96221 4.21463L8.79802 10.0798Z" fill="white"/>
</svg>

<svg fill="none" xmlns="http://www.w3.org/2000/svg" viewBox="0 0 14 14"><path d="M11.951 2.048A6.943 6.943 0 007 0a6.943 6.943 0 00-4.952 2.048A6.943 6.943 0 000 7c0 1.871.722 3.625 2.048 4.951A6.943 6.943 0 007 14a6.943 6.943 0 004.951-2.049A6.943 6.943 0 0014 7a6.943 6.943 0 00-2.049-4.952zM7 13.322A6.32 6.32 0 01.678 7 6.32 6.32 0 017 .678c3.492 0 6.322 2.844 6.322 6.322S10.492 13.322 7 13.322z" fill="#fff"/><path d="M10.301 3.758c-.25-.162-.604-.03-.707.015L2.918 6.38c-.236.088-.5.28-.457.59.045.353.413.486.457.5l1.547.516c.118.398.487 1.592.575 1.857.074.221.162.472.398.486.03.015.074.015.133.015.147 0 .235-.044.294-.118l.9-.825 1.517 1.164c.015.015.03.03.06.03a.785.785 0 00.338.073c.103 0 .192-.03.25-.044.266-.103.37-.354.384-.383 0-.015.015-.03.015-.044L10.522 4.2v-.044a.483.483 0 00-.22-.398zm-4.51 5.835l.09-.825.441.34-.53.485zm3.007.487c-.015.014-.044.059-.088.088a.178.178 0 01-.148-.014L6.897 8.87l-.825-.648a463.96 463.96 0 002.962-2.667c.088-.089.191-.192.177-.354 0-.015 0-.03-.015-.044a.29.29 0 00-.147-.221c-.163-.089-.34-.03-.472.059l-3.935 2.52-1.562-.53c-.03-.016-.073-.03-.088-.06.03-.015.059-.044.088-.044h.015l6.676-2.623h.014c.045-.015.118-.044.177-.044L8.798 10.08z" fill="#fff"/></svg>
